;START_OF_HEADER
;HEADER_VERSION:0.1
;FLAVOR:Griffin
;GENERATOR.NAME:Cura_SteamEngine
;GENERATOR.VERSION:4.3.0
;GENERATOR.BUILD_DATE:2019-09-24
;TARGET_MACHINE.NAME:Ultimaker 3
;EXTRUDER_TRAIN.0.INITIAL_TEMPERATURE:205
;EXTRUDER_TRAIN.0.MATERIAL.VOLUME_USED:5930
;EXTRUDER_TRAIN.0.MATERIAL.GUID:506c9f0d-e3aa-4bd4-b2d2-23e2425b1aa9
;EXTRUDER_TRAIN.0.NOZZLE.DIAMETER:0.4
;EXTRUDER_TRAIN.0.NOZZLE.NAME:AA 0.4
;BUILD_PLATE.TYPE:glass
;BUILD_PLATE.INITIAL_TEMPERATURE:60
;PRINT.TIME:7005
;PRINT.GROUPS:1
;PRINT.SIZE.MIN.X:9
;PRINT.SIZE.MIN.Y:6
;PRINT.SIZE.MIN.Z:0.27
;PRINT.SIZE.MAX.X:146.93
;PRINT.SIZE.MAX.Y:126.43
;PRINT.SIZE.MAX.Z:36.07
;END_OF_HEADER
;Generated with Cura_SteamEngine 4.3.0
T0
M82 ;absolute extrusion mode

G92 E0
M109 S205
G0 F15000 X9 Y6 Z2
G280
G1 F1500 E-6.5
;LAYER_COUNT:359
;LAYER:0
M107
M204 S625
M205 X6 Y6
G1 F600 Z2.27
G0 F4285.7 X88.477 Y90.25 Z2.27
M204 S500
M205 X5 Y5
;TYPE:SKIRT
G1 F600 Z0.27
G1 F1500 E0
G1 F1200 X89.066 Y89.795 E0.01323
G1 X89.7 Y89.406 E0.02645
G1 X90.373 Y89.087 E0.03969
G1 X91.076 Y88.842 E0.05293
G1 X91.801 Y88.674 E0.06615
G1 X92.54 Y88.585 E0.07939
G1 X93 Y88.57 E0.08757
G1 X140 Y88.57 E0.92304
G1 X140.743 Y88.61 E0.93626
G1 X141.478 Y88.729 E0.9495
G1 X142.196 Y88.927 E0.96274
G1 X142.888 Y89.2 E0.97596
G1 X143.547 Y89.546 E0.98919
G1 X144.165 Y89.961 E1.00243
G1 X144.735 Y90.44 E1.01566
G1 X145.25 Y90.977 E1.02889
G1 X145.705 Y91.566 E1.04212
G1 X146.094 Y92.2 E1.05534
G1 X146.413 Y92.873 E1.06858
G1 X146.658 Y93.576 E1.08181
G1 X146.826 Y94.301 E1.09504
G1 X146.915 Y95.04 E1.10827
G1 X146.93 Y95.5 E1.11645
G1 X146.93 Y119.5 E1.54308
G1 X146.89 Y120.243 E1.5563
G1 X146.771 Y120.978 E1.56954
G1 X146.573 Y121.696 E1.58278
G1 X146.3 Y122.388 E1.596
G1 X145.954 Y123.047 E1.60923
G1 X145.539 Y123.665 E1.62247
G1 X145.06 Y124.235 E1.6357
G1 X144.523 Y124.75 E1.64893
G1 X143.934 Y125.205 E1.66216
G1 X143.3 Y125.594 E1.67538
G1 X142.627 Y125.913 E1.68862
G1 X141.924 Y126.158 E1.70185
G1 X141.199 Y126.326 E1.71508
G1 X140.46 Y126.415 E1.72831
G1 X140 Y126.43 E1.73649
G1 X93 Y126.43 E2.57197
G1 X92.257 Y126.39 E2.58519
G1 X91.522 Y126.271 E2.59843
G1 X90.804 Y126.073 E2.61167
G1 X90.112 Y125.8 E2.62489
G1 X89.453 Y125.454 E2.63812
G1 X88.835 Y125.039 E2.65135
G1 X88.265 Y124.56 E2.66459
G1 X87.75 Y124.023 E2.67782
G1 X87.295 Y123.434 E2.69105
G1 X86.906 Y122.8 E2.70427
G1 X86.587 Y122.127 E2.71751
G1 X86.342 Y121.424 E2.73074
G1 X86.174 Y120.699 E2.74397
G1 X86.085 Y119.96 E2.7572
G1 X86.07 Y119.5 E2.76538
G1 X86.07 Y95.5 E3.19201
G1 X86.11 Y94.757 E3.20523
G1 X86.229 Y94.022 E3.21847
G1 X86.427 Y93.304 E3.23171
G1 X86.7 Y92.612 E3.24493
G1 X87.046 Y91.953 E3.25816
G1 X87.461 Y91.335 E3.27139
G1 X87.94 Y90.765 E3.28463
G1 X88.477 Y90.25 E3.29786
M204 S625
M205 X6 Y6
G0 F4285.7 X88.887 Y90.454
M204 S500
M205 X5 Y5
G1 F1200 X89.471 Y90.03 E3.31068
G1 X90.098 Y89.673 E3.32351
G1 X90.76 Y89.387 E3.33633
G1 X91.45 Y89.177 E3.34915
G1 X92.159 Y89.045 E3.36197
G1 X93 Y88.99 E3.37695
G1 X140 Y88.99 E4.21242
G1 X140.72 Y89.03 E4.22524
G1 X141.432 Y89.149 E4.23807
G1 X142.126 Y89.347 E4.2509
G1 X142.793 Y89.62 E4.26371
G1 X143.427 Y89.965 E4.27654
G1 X144.018 Y90.378 E4.28936
G1 X144.56 Y90.854 E4.30218
G1 X145.046 Y91.387 E4.315
G1 X145.47 Y91.971 E4.32783
G1 X145.827 Y92.598 E4.34066
G1 X146.113 Y93.26 E4.35348
G1 X146.323 Y93.95 E4.3663
G1 X146.455 Y94.659 E4.37912
G1 X146.51 Y95.5 E4.3941
G1 X146.51 Y119.5 E4.82072
G1 X146.47 Y120.22 E4.83354
G1 X146.351 Y120.932 E4.84637
G1 X146.153 Y121.626 E4.8592
G1 X145.88 Y122.293 E4.87201
G1 X145.535 Y122.927 E4.88484
G1 X145.122 Y123.518 E4.89766
G1 X144.646 Y124.06 E4.91048
G1 X144.113 Y124.546 E4.9233
G1 X143.529 Y124.97 E4.93613
G1 X142.902 Y125.327 E4.94896
G1 X142.24 Y125.613 E4.96178
G1 X141.55 Y125.823 E4.9746
G1 X140.841 Y125.955 E4.98742
G1 X140 Y126.01 E5.0024
G1 X93 Y126.01 E5.83787
G1 X92.28 Y125.97 E5.85069
G1 X91.568 Y125.851 E5.86352
G1 X90.874 Y125.653 E5.87635
G1 X90.207 Y125.38 E5.88916
G1 X89.573 Y125.035 E5.90199
G1 X88.982 Y124.622 E5.91481
G1 X88.44 Y124.146 E5.92763
G1 X87.954 Y123.613 E5.94045
G1 X87.53 Y123.029 E5.95328
G1 X87.173 Y122.402 E5.96611
G1 X86.887 Y121.74 E5.97893
G1 X86.677 Y121.05 E5.99175
G1 X86.545 Y120.341 E6.00457
G1 X86.49 Y119.5 E6.01955
G1 X86.49 Y95.5 E6.44617
G1 X86.53 Y94.78 E6.45899
G1 X86.649 Y94.068 E6.47182
G1 X86.847 Y93.374 E6.48465
G1 X87.12 Y92.707 E6.49746
G1 X87.465 Y92.073 E6.51029
G1 X87.878 Y91.482 E6.52311
G1 X88.354 Y90.94 E6.53593
G1 X88.887 Y90.454 E6.54875
M204 S625
M205 X6 Y6
G0 F4285.7 X88.768 Y91.121
M204 S500
M205 X5 Y5
G1 F1200 X89.296 Y90.666 E6.56114
G1 X89.873 Y90.274 E6.57354
G1 X90.492 Y89.951 E6.58596
G1 X91.143 Y89.7 E6.59836
G1 X91.819 Y89.526 E6.61077
G1 X92.51 Y89.43 E6.62317
G1 X93 Y89.41 E6.63188
G1 X140 Y89.41 E7.46736
G1 X140.697 Y89.45 E7.47977
G1 X141.384 Y89.569 E7.49216
G1 X142.053 Y89.767 E7.50456
G1 X142.696 Y90.039 E7.51697
G1 X143.302 Y90.383 E7.52936
G1 X143.866 Y90.795 E7.54177
G1 X144.379 Y91.268 E7.55418
G1 X144.834 Y91.796 E7.56657
G1 X145.226 Y92.373 E7.57897
G1 X145.549 Y92.992 E7.59138
G1 X145.8 Y93.643 E7.60378
G1 X145.974 Y94.319 E7.61619
G1 X146.07 Y95.01 E7.62859
G1 X146.09 Y95.5 E7.63731
G1 X146.09 Y119.5 E8.06393
G1 X146.05 Y120.197 E8.07634
G1 X145.931 Y120.884 E8.08874
G1 X145.733 Y121.553 E8.10114
G1 X145.461 Y122.196 E8.11355
G1 X145.117 Y122.802 E8.12594
G1 X144.705 Y123.366 E8.13835
G1 X144.232 Y123.879 E8.15076
G1 X143.704 Y124.334 E8.16315
G1 X143.127 Y124.726 E8.17555
G1 X142.508 Y125.049 E8.18796
G1 X141.857 Y125.3 E8.20036
G1 X141.181 Y125.474 E8.21277
G1 X140.49 Y125.57 E8.22517
G1 X140 Y125.59 E8.23389
G1 X93 Y125.59 E9.06936
G1 X92.303 Y125.55 E9.08177
G1 X91.616 Y125.431 E9.09416
G1 X90.947 Y125.233 E9.10656
G1 X90.304 Y124.961 E9.11897
G1 X89.698 Y124.617 E9.13136
G1 X89.134 Y124.205 E9.14378
G1 X88.621 Y123.732 E9.15618
G1 X88.166 Y123.204 E9.16857
G1 X87.774 Y122.627 E9.18097
G1 X87.451 Y122.008 E9.19338
G1 X87.2 Y121.357 E9.20578
G1 X87.026 Y120.681 E9.21819
G1 X86.93 Y119.99 E9.23059
G1 X86.91 Y119.5 E9.23931
G1 X86.91 Y95.5 E9.66593
G1 X86.95 Y94.803 E9.67834
G1 X87.069 Y94.116 E9.69074
G1 X87.267 Y93.447 E9.70314
G1 X87.539 Y92.804 E9.71555
G1 X87.883 Y92.198 E9.72794
G1 X88.295 Y91.634 E9.74035
G1 X88.768 Y91.121 E9.75276
M204 S625
M205 X6 Y6
G0 F4285.7 X89.18 Y91.31
M204 S500
M205 X5 Y5
G1 F1200 X89.704 Y90.887 E9.76473
G1 X90.274 Y90.528 E9.7767
G1 X90.882 Y90.24 E9.78866
G1 X91.52 Y90.026 E9.80062
G1 X92.18 Y89.89 E9.8126
G1 X93 Y89.83 E9.82722
G1 X140 Y89.83 E10.66269
G1 X140.672 Y89.87 E10.67465
G1 X141.335 Y89.989 E10.68663
G1 X141.978 Y90.186 E10.69858
G1 X142.594 Y90.458 E10.71055
G1 X143.173 Y90.801 E10.72252
G1 X143.708 Y91.21 E10.73449
G1 X144.19 Y91.68 E10.74645
G1 X144.613 Y92.204 E10.75842
G1 X144.972 Y92.774 E10.7704
G1 X145.26 Y93.382 E10.78236
G1 X145.474 Y94.02 E10.79432
G1 X145.61 Y94.68 E10.8063
G1 X145.67 Y95.5 E10.82091
G1 X145.67 Y119.5 E11.24754
G1 X145.63 Y120.172 E11.2595
G1 X145.511 Y120.835 E11.27148
G1 X145.314 Y121.478 E11.28343
G1 X145.042 Y122.094 E11.2954
G1 X144.699 Y122.673 E11.30736
G1 X144.29 Y123.208 E11.31934
G1 X143.82 Y123.69 E11.3313
G1 X143.296 Y124.113 E11.34327
G1 X142.726 Y124.472 E11.35525
G1 X142.118 Y124.76 E11.36721
G1 X141.48 Y124.974 E11.37917
G1 X140.82 Y125.11 E11.39115
G1 X140 Y125.17 E11.40576
G1 X93 Y125.17 E12.24123
G1 X92.328 Y125.13 E12.2532
G1 X91.665 Y125.011 E12.26517
G1 X91.022 Y124.814 E12.27713
G1 X90.406 Y124.542 E12.2891
G1 X89.827 Y124.199 E12.30106
G1 X89.292 Y123.79 E12.31303
G1 X88.81 Y123.32 E12.325
G1 X88.387 Y122.796 E12.33697
G1 X88.028 Y122.226 E12.34894
G1 X87.74 Y121.618 E12.3609
G1 X87.526 Y120.98 E12.37287
G1 X87.39 Y120.32 E12.38484
G1 X87.33 Y119.5 E12.39946
G1 X87.33 Y95.5 E12.82608
G1 X87.37 Y94.828 E12.83805
G1 X87.489 Y94.165 E12.85002
G1 X87.686 Y93.522 E12.86198
G1 X87.958 Y92.906 E12.87395
G1 X88.301 Y92.327 E12.88591
G1 X88.71 Y91.792 E12.89788
G1 X89.18 Y91.31 E12.90985
M204 S625
M205 X6 Y6
G0 F4285.7 X89.592 Y91.507
M204 S500
M205 X5 Y5
G1 F1200 X90.109 Y91.118 E12.92135
G1 X90.671 Y90.795 E12.93287
G1 X91.268 Y90.544 E12.94438
G1 X91.892 Y90.368 E12.95591
G1 X92.532 Y90.271 E12.96742
G1 X93 Y90.25 E12.97574
G1 X140 Y90.25 E13.81121
G1 X140.647 Y90.29 E13.82274
G1 X141.283 Y90.409 E13.83424
G1 X141.9 Y90.606 E13.84575
G1 X142.489 Y90.877 E13.85728
G1 X143.039 Y91.219 E13.86879
G1 X143.543 Y91.626 E13.88031
G1 X143.993 Y92.092 E13.89182
G1 X144.382 Y92.609 E13.90332
G1 X144.705 Y93.171 E13.91484
G1 X144.956 Y93.768 E13.92636
G1 X145.132 Y94.392 E13.93788
G1 X145.229 Y95.032 E13.94939
G1 X145.25 Y95.5 E13.95772
G1 X145.25 Y119.5 E14.38434
G1 X145.21 Y120.147 E14.39586
G1 X145.091 Y120.783 E14.40736
G1 X144.894 Y121.4 E14.41888
G1 X144.623 Y121.989 E14.4304
G1 X144.281 Y122.539 E14.44191
G1 X143.874 Y123.043 E14.45343
G1 X143.408 Y123.493 E14.46495
G1 X142.891 Y123.882 E14.47645
G1 X142.329 Y124.205 E14.48797
G1 X141.732 Y124.456 E14.49948
G1 X141.108 Y124.632 E14.51101
G1 X140.468 Y124.729 E14.52251
G1 X140 Y124.75 E14.53084
G1 X93 Y124.75 E15.36631
G1 X92.353 Y124.71 E15.37783
G1 X91.717 Y124.591 E15.38934
G1 X91.1 Y124.394 E15.40085
G1 X90.511 Y124.123 E15.41237
G1 X89.961 Y123.781 E15.42389
G1 X89.457 Y123.374 E15.4354
G1 X89.007 Y122.908 E15.44692
G1 X88.618 Y122.391 E15.45842
G1 X88.295 Y121.829 E15.46994
G1 X88.044 Y121.232 E15.48145
G1 X87.868 Y120.608 E15.49298
G1 X87.771 Y119.968 E15.50449
G1 X87.75 Y119.5 E15.51281
G1 X87.75 Y95.5 E15.93944
G1 X87.79 Y94.853 E15.95096
G1 X87.909 Y94.217 E15.96246
G1 X88.106 Y93.6 E15.97397
G1 X88.377 Y93.011 E15.9855
G1 X88.719 Y92.461 E15.99701
G1 X89.126 Y91.957 E16.00853
G1 X89.592 Y91.507 E16.02004
M204 S625
M205 X6 Y6
G0 F4285.7 X90.002 Y91.713
M204 S500
M205 X5 Y5
G1 F1200 X90.512 Y91.36 E16.03107
G1 X91.064 Y91.075 E16.04211
G1 X91.649 Y90.863 E16.05317
G1 X92.255 Y90.728 E16.06421
G1 X93 Y90.67 E16.07749
G1 X140 Y90.67 E16.91296
G1 X140.62 Y90.71 E16.92401
G1 X141.23 Y90.829 E16.93505
G1 X141.819 Y91.026 E16.94609
G1 X142.378 Y91.296 E16.95713
G1 X142.898 Y91.636 E16.96817
G1 X143.37 Y92.04 E16.97922
G1 X143.787 Y92.502 E16.99028
G1 X144.14 Y93.012 E17.00131
G1 X144.425 Y93.564 E17.01235
G1 X144.637 Y94.149 E17.02341
G1 X144.772 Y94.755 E17.03445
G1 X144.83 Y95.5 E17.04773
G1 X144.83 Y119.5 E17.47435
G1 X144.79 Y120.12 E17.4854
G1 X144.671 Y120.73 E17.49644
G1 X144.474 Y121.319 E17.50748
G1 X144.204 Y121.878 E17.51852
G1 X143.864 Y122.398 E17.52956
G1 X143.46 Y122.87 E17.54061
G1 X142.998 Y123.287 E17.55167
G1 X142.488 Y123.64 E17.5627
G1 X141.936 Y123.925 E17.57374
G1 X141.351 Y124.137 E17.5848
G1 X140.745 Y124.272 E17.59584
G1 X140 Y124.33 E17.60912
G1 X93 Y124.33 E18.44459
G1 X92.38 Y124.29 E18.45563
G1 X91.77 Y124.171 E18.46668
G1 X91.181 Y123.974 E18.47772
G1 X90.622 Y123.704 E18.48876
G1 X90.102 Y123.364 E18.4998
G1 X89.63 Y122.96 E18.51085
G1 X89.213 Y122.498 E18.52191
G1 X88.86 Y121.988 E18.53293
G1 X88.575 Y121.436 E18.54398
G1 X88.363 Y120.851 E18.55504
G1 X88.228 Y120.245 E18.56607
G1 X88.17 Y119.5 E18.57936
G1 X88.17 Y95.5 E19.00598
G1 X88.21 Y94.88 E19.01703
G1 X88.329 Y94.27 E19.02807
G1 X88.526 Y93.681 E19.03911
G1 X88.796 Y93.122 E19.05015
G1 X89.136 Y92.602 E19.06119
G1 X89.54 Y92.13 E19.07224
G1 X90.002 Y91.713 E19.0833
M204 S625
M205 X6 Y6
G0 F4285.7 X89.954 Y92.311
M204 S500
M205 X5 Y5
G1 F1200 X90.41 Y91.931 E19.09385
G1 X90.913 Y91.615 E19.10441
G1 X91.453 Y91.37 E19.11495
G1 X92.022 Y91.2 E19.12551
G1 X92.608 Y91.107 E19.13605
G1 X93 Y91.09 E19.14303
G1 X140 Y91.09 E19.9785
G1 X140.592 Y91.13 E19.98905
G1 X141.174 Y91.249 E19.99961
G1 X141.734 Y91.445 E20.01015
G1 X142.263 Y91.715 E20.02071
G1 X142.751 Y92.053 E20.03126
G1 X143.189 Y92.454 E20.04182
G1 X143.569 Y92.91 E20.05237
G1 X143.885 Y93.413 E20.06293
G1 X144.13 Y93.953 E20.07347
G1 X144.3 Y94.522 E20.08403
G1 X144.393 Y95.108 E20.09457
G1 X144.41 Y95.5 E20.10155
G1 X144.41 Y119.5 E20.52817
G1 X144.37 Y120.092 E20.53872
G1 X144.251 Y120.674 E20.54928
G1 X144.055 Y121.234 E20.55983
G1 X143.785 Y121.763 E20.57038
G1 X143.447 Y122.251 E20.58094
G1 X143.046 Y122.689 E20.59149
G1 X142.59 Y123.069 E20.60204
G1 X142.087 Y123.385 E20.6126
G1 X141.547 Y123.63 E20.62314
G1 X140.978 Y123.8 E20.6337
G1 X140.392 Y123.893 E20.64425
G1 X140 Y123.91 E20.65122
G1 X93 Y123.91 E21.48669
G1 X92.408 Y123.87 E21.49724
G1 X91.826 Y123.751 E21.5078
G1 X91.266 Y123.555 E21.51835
G1 X90.737 Y123.285 E21.5289
G1 X90.249 Y122.947 E21.53946
G1 X89.811 Y122.546 E21.55001
G1 X89.431 Y122.09 E21.56056
G1 X89.115 Y121.587 E21.57112
G1 X88.87 Y121.047 E21.58166
G1 X88.7 Y120.478 E21.59222
G1 X88.607 Y119.892 E21.60277
G1 X88.59 Y119.5 E21.60974
G1 X88.59 Y95.5 E22.03637
G1 X88.63 Y94.908 E22.04691
G1 X88.749 Y94.326 E22.05747
G1 X88.945 Y93.766 E22.06802
G1 X89.215 Y93.237 E22.07858
G1 X89.553 Y92.749 E22.08913
G1 X89.954 Y92.311 E22.09968
M204 S625
M205 X6 Y6
G0 F4285.7 X90.366 Y92.503
M204 S500
M205 X5 Y5
G1 F1200 X90.815 Y92.161 E22.10972
G1 X91.309 Y91.886 E22.11977
G1 X91.836 Y91.684 E22.1298
G1 X92.386 Y91.558 E22.13983
G1 X93 Y91.51 E22.15078
G1 X140 Y91.51 E22.98625
G1 X140.563 Y91.55 E22.99628
G1 X141.115 Y91.669 E23.00632
G1 X141.645 Y91.865 E23.01637
G1 X142.141 Y92.133 E23.02639
G1 X142.595 Y92.469 E23.03643
G1 X142.997 Y92.866 E23.04647
G1 X143.339 Y93.315 E23.0565
G1 X143.614 Y93.809 E23.06655
G1 X143.816 Y94.336 E23.07659
G1 X143.942 Y94.886 E23.08662
G1 X143.99 Y95.5 E23.09756
G1 X143.99 Y119.5 E23.52419
G1 X143.95 Y120.063 E23.53422
G1 X143.831 Y120.615 E23.54426
G1 X143.635 Y121.145 E23.5543
G1 X143.367 Y121.641 E23.56432
G1 X143.031 Y122.095 E23.57436
G1 X142.634 Y122.497 E23.58441
G1 X142.185 Y122.839 E23.59444
G1 X141.691 Y123.114 E23.60449
G1 X141.164 Y123.316 E23.61452
G1 X140.614 Y123.442 E23.62455
G1 X140 Y123.49 E23.6355
G1 X93 Y123.49 E24.47097
G1 X92.437 Y123.45 E24.48101
G1 X91.885 Y123.331 E24.49104
G1 X91.355 Y123.135 E24.50109
G1 X90.859 Y122.867 E24.51111
G1 X90.405 Y122.531 E24.52115
G1 X90.003 Y122.134 E24.53119
G1 X89.661 Y121.685 E24.54123
G1 X89.386 Y121.191 E24.55128
G1 X89.184 Y120.664 E24.56131
G1 X89.058 Y120.114 E24.57134
G1 X89.01 Y119.5 E24.58229
G1 X89.01 Y95.5 E25.00891
G1 X89.05 Y94.937 E25.01894
G1 X89.169 Y94.385 E25.02898
G1 X89.365 Y93.855 E25.03903
G1 X89.633 Y93.359 E25.04905
G1 X89.969 Y92.905 E25.05909
G1 X90.366 Y92.503 E25.06913
M204 S625
M205 X6 Y6
G0 F4285.7 X90.776 Y92.707
M204 S500
M205 X5 Y5
G1 F1200 X91.218 Y92.407 E25.07863
G1 X91.699 Y92.175 E25.08812
G1 X92.21 Y92.019 E25.09762
G1 X93 Y91.93 E25.11175
G1 X140 Y91.93 E25.94722
G1 X140.533 Y91.97 E25.95672
G1 X141.053 Y92.089 E25.9662
G1 X141.55 Y92.284 E25.97569
G1 X142.013 Y92.551 E25.98519
G1 X142.43 Y92.885 E25.99469
G1 X142.793 Y93.276 E26.00418
G1 X143.093 Y93.718 E26.01367
G1 X143.325 Y94.199 E26.02316
G1 X143.481 Y94.71 E26.03266
G1 X143.57 Y95.5 E26.04679
G1 X143.57 Y119.5 E26.47342
G1 X143.53 Y120.033 E26.48292
G1 X143.411 Y120.553 E26.4924
G1 X143.216 Y121.05 E26.50189
G1 X142.949 Y121.513 E26.51139
G1 X142.615 Y121.93 E26.52089
G1 X142.224 Y122.293 E26.53037
G1 X141.782 Y122.593 E26.53987
G1 X141.301 Y122.825 E26.54936
G1 X140.79 Y122.981 E26.55886
G1 X140 Y123.07 E26.57299
G1 X93 Y123.07 E27.40846
G1 X92.467 Y123.03 E27.41796
G1 X91.947 Y122.911 E27.42745
G1 X91.45 Y122.716 E27.43694
G1 X90.987 Y122.449 E27.44644
G1 X90.57 Y122.115 E27.45593
G1 X90.207 Y121.724 E27.46542
G1 X89.907 Y121.282 E27.47491
G1 X89.675 Y120.801 E27.48441
G1 X89.519 Y120.29 E27.4939
G1 X89.43 Y119.5 E27.50804
G1 X89.43 Y95.5 E27.93466
G1 X89.47 Y94.967 E27.94416
G1 X89.589 Y94.447 E27.95364
G1 X89.784 Y93.95 E27.96313
G1 X90.051 Y93.487 E27.97263
G1 X90.385 Y93.07 E27.98213
G1 X90.776 Y92.707 E27.99161
M204 S625
M205 X6 Y6
G0 F4285.7 X90.799 Y93.247
M204 S500
M205 X5 Y5
G1 F1200 X91.184 Y92.926 E28.00053
G1 X91.616 Y92.67 E28.00945
G1 X92.083 Y92.487 E28.01837
G1 X92.572 Y92.379 E28.02727
G1 X93 Y92.35 E28.03489
G1 X140 Y92.35 E28.87037
G1 X140.5 Y92.39 E28.87928
G1 X140.987 Y92.509 E28.88819
G1 X141.45 Y92.703 E28.89712
G1 X141.875 Y92.969 E28.90603
G1 X142.253 Y93.299 E28.91495
